X:1
T:Title
%%score [ ( 1 2 ) ( 3 4 ) ]
L:1/8
Q:1/4=120
M:4/4
K:E
V:1 treble nm="Midi_74"
V:2 treble 
V:3 treble nm="Midi_74"
V:4 treble 
V:1
 E8 | G4 B4 | A8 || G8 | G4 F4 | E4"^Richard Thiele\n(1847-1903)" F4 | G8 |] %7
V:2
 B,8 | E4 G4 | E8 || E8 | C4 C4 | B,4 D4 | E8 |] %7
V:3
 G,8 | B,4 =D4 | C8 || B,8 | A,4 A,4 | G,4 B,4 | B,8 |] %7
V:4
 E,8 | E,4 E,4 | A,8 || E,8 | A,,4 A,,4 | B,,4 B,,4 | E,8 |] %7

